rospo-icon-theme-classic-common/32x32/apps/xcos.svg

<svg height="32" width="32" xmlns="http://www.w3.org/2000/svg"><rect height="24" opacity=".2" rx="1.4" ry="1.5" transform="scale(-1 1)" width="28" x="-30" y="5"/><rect fill="#e74c3c" height="24" rx="1.4" ry="1.5" transform="scale(-1 1)" width="28" x="-30" y="4"/><rect fill="#3f3f3f" height="14" rx=".7" width="14" x="5" y="9"/><path d="m6 16.5002h2.3l1.4-3 1.4 8 2.1-9 1.4 4h3.5" fill="none" opacity=".2" stroke="#000" stroke-linejoin="round"/><path d="m6 15.5h2.3l1.4-3 1.4 8 2.1-9 1.4 4h3.5" fill="none" stroke="#fff" stroke-linejoin="round"/><path d="m24.5 8a2.4999995 2.4999995 0 0 0 -2.5 2.5 2.4999995 2.4999995 0 0 0 2.5 2.5 2.4999995 2.4999995 0 0 0 2.5-2.5 2.4999995 2.4999995 0 0 0 -2.5-2.5zm-2 7a1.5 1.5 0 0 0 -1.5 1.5 1.5 1.5 0 0 0 1.5 1.5 1.5 1.5 0 0 0 1.5-1.5 1.5 1.5 0 0 0 -1.5-1.5zm4 0a1.5 1.5 0 0 0 -1.5 1.5 1.5 1.5 0 0 0 1.5 1.5 1.5 1.5 0 0 0 1.5-1.5 1.5 1.5 0 0 0 -1.5-1.5zm-4 4a1.5 1.5 0 0 0 -1.5 1.5 1.5 1.5 0 0 0 1.5 1.5 1.5 1.5 0 0 0 1.5-1.5 1.5 1.5 0 0 0 -1.5-1.5zm4 0a1.5 1.5 0 0 0 -1.5 1.5 1.5 1.5 0 0 0 1.5 1.5 1.5 1.5 0 0 0 1.5-1.5 1.5 1.5 0 0 0 -1.5-1.5zm-4 4a1.5 1.5 0 0 0 -1.5 1.5 1.5 1.5 0 0 0 1.5 1.5 1.5 1.5 0 0 0 1.5-1.5 1.5 1.5 0 0 0 -1.5-1.5zm4 0a1.5 1.5 0 0 0 -1.5 1.5 1.5 1.5 0 0 0 1.5 1.5 1.5 1.5 0 0 0 1.5-1.5 1.5 1.5 0 0 0 -1.5-1.5z" opacity=".2"/><g fill="#fff"><circle cx="22.5" cy="15.5" r="1.5"/><circle cx="24.5" cy="9.5" r="2.5"/><circle cx="22.5" cy="19.5" r="1.5"/><circle cx="22.5" cy="23.5" r="1.5"/><circle cx="26.5" cy="15.5" r="1.5"/><circle cx="26.5" cy="19.5" r="1.5"/></g><circle cx="26.5" cy="23.5" fill="#3f3f3f" r="1.5"/><path d="m3.4003906 4c-.7756 0-1.4003906.669-1.4003906 1.5v1c0-.831.6247906-1.5 1.4003906-1.5h25.1992184c.7756 0 1.400391.669 1.400391 1.5v-1c0-.831-.624791-1.5-1.400391-1.5z" fill="#fff" opacity=".2"/></svg>

<svg xmlns="http://www.w3.org/2000/svg" width="32" height="32" version="1">
 <rect style="opacity:0.2" width="28" height="24" x="-30" y="5" rx="1.4" ry="1.5" transform="scale(-1,1)"/>
 <rect style="fill:#e74c3c" width="28" height="24" x="-30" y="4" rx="1.4" ry="1.5" transform="scale(-1,1)"/>
 <rect style="fill:#3f3f3f" width="14" height="14" x="5" y="9" rx=".7" ry=".7"/>
 <path style="opacity:0.2;fill:none;stroke:#000000;stroke-linejoin:round" d="m 6,16.5002 h 2.3 l 1.4,-3 1.4,8 2.1,-9 1.4,4 h 3.5"/>
 <path style="fill:none;stroke:#ffffff;stroke-linejoin:round" d="m 6,15.5 h 2.3 l 1.4,-3 1.4,8 2.1,-9 1.4,4 h 3.5"/>
 <path style="opacity:0.2" d="M 24.5,8 A 2.4999995,2.4999995 0 0 0 22,10.5 2.4999995,2.4999995 0 0 0 24.5,13 2.4999995,2.4999995 0 0 0 27,10.5 2.4999995,2.4999995 0 0 0 24.5,8 Z m -2,7 A 1.5,1.5 0 0 0 21,16.5 1.5,1.5 0 0 0 22.5,18 1.5,1.5 0 0 0 24,16.5 1.5,1.5 0 0 0 22.5,15 Z m 4,0 A 1.5,1.5 0 0 0 25,16.5 1.5,1.5 0 0 0 26.5,18 1.5,1.5 0 0 0 28,16.5 1.5,1.5 0 0 0 26.5,15 Z m -4,4 A 1.5,1.5 0 0 0 21,20.5 1.5,1.5 0 0 0 22.5,22 1.5,1.5 0 0 0 24,20.5 1.5,1.5 0 0 0 22.5,19 Z m 4,0 A 1.5,1.5 0 0 0 25,20.5 1.5,1.5 0 0 0 26.5,22 1.5,1.5 0 0 0 28,20.5 1.5,1.5 0 0 0 26.5,19 Z m -4,4 A 1.5,1.5 0 0 0 21,24.5 1.5,1.5 0 0 0 22.5,26 1.5,1.5 0 0 0 24,24.5 1.5,1.5 0 0 0 22.5,23 Z m 4,0 A 1.5,1.5 0 0 0 25,24.5 1.5,1.5 0 0 0 26.5,26 1.5,1.5 0 0 0 28,24.5 1.5,1.5 0 0 0 26.5,23 Z"/>
 <g>
  <circle style="fill:#ffffff" cx="22.5" cy="15.5" r="1.5"/>
  <circle style="fill:#ffffff;stroke:#000000;stroke-width:0;stroke-linecap:round;stroke-linejoin:round" cx="24.5" cy="9.5" r="2.5"/>
  <circle style="fill:#ffffff" cx="22.5" cy="19.5" r="1.5"/>
  <circle style="fill:#ffffff" cx="22.5" cy="23.5" r="1.5"/>
  <circle style="fill:#ffffff" cx="26.5" cy="15.5" r="1.5"/>
  <circle style="fill:#ffffff" cx="26.5" cy="19.5" r="1.5"/>
  <circle style="fill:#3f3f3f" cx="26.5" cy="23.5" r="1.5"/>
 </g>
 <path style="fill:#ffffff;opacity:0.2" d="M 3.4003906 4 C 2.6247906 4 2 4.669 2 5.5 L 2 6.5 C 2 5.669 2.6247906 5 3.4003906 5 L 28.599609 5 C 29.375209 5 30 5.669 30 6.5 L 30 5.5 C 30 4.669 29.375209 4 28.599609 4 L 3.4003906 4 z"/>
</svg>
